app/assets/images/icons/active/bicycle.svg

<?xml version="1.0" encoding="UTF-8" standalone="no"?>
<svg width="32px" height="232px" viewBox="0 0 32 232" version="1.1" xmlns="http://www.w3.org/2000/svg" xmlns:xlink="http://www.w3.org/1999/xlink" xmlns:sketch="http://www.bohemiancoding.com/sketch/ns">
    <title>bicycle</title>
    <description>Created with Sketch (http://www.bohemiancoding.com/sketch)</description>
    <defs></defs>
    <g id="Transport" stroke="none" stroke-width="1" fill="none" fill-rule="evenodd" sketch:type="MSPage">
        <path d="M18.689,136.648866 C18.841,136.712224 19.004,136.744406 19.167,136.744406 L21.724,136.744406 C22.408,136.744406 22.961,136.196309 22.961,135.507417 C22.961,134.825564 22.408,134.254337 21.724,134.254337 L19.672,134.254337 L16.853,131.413285 C16.85,131.411274 16.849,131.404234 16.845,131.402223 C16.606,131.156836 16.289,131.036154 15.971,131.03716 C15.653,131.036154 15.335,131.156836 15.091,131.402223 C15.086,131.408257 15.084,131.416302 15.078,131.422336 L11.902,134.623422 C11.658,134.86378 11.536,135.183587 11.536,135.503394 C11.536,135.822195 11.658,136.139991 11.902,136.381355 L14.733,139.230452 L14.733,144.008448 C14.733,144.694323 15.287,145.257505 15.966,145.257505 C16.657,145.257505 17.209,144.694323 17.209,144.008448 L17.209,138.74873 C17.216,138.418867 17.099,138.085986 16.845,137.834565 L14.525,135.501383 L15.968,134.047166 L18.287,136.381355 C18.287,136.381355 18.29,136.38236 18.291,136.384372 C18.404,136.496002 18.539,136.586514 18.689,136.648866 Z M19.259,131.989541 C20.357,131.989541 21.247,131.099512 21.247,129.989239 C21.247,128.888017 20.357,128 19.259,128 C18.17,128 17.277,128.888017 17.277,129.989239 C17.277,131.099512 18.17,131.989541 19.259,131.989541 Z M23.397,137.747071 C20.58,137.747071 18.295,140.048072 18.295,142.879067 C18.295,145.702016 20.58,148 23.397,148 C26.211,148 28.5,145.702016 28.5,142.879067 C28.5,140.048072 26.211,137.747071 23.397,137.747071 Z M23.397,146.015789 C21.673,146.015789 20.27,144.607834 20.27,142.879067 C20.27,141.148288 21.673,139.740333 23.397,139.740333 C25.119,139.740333 26.518,141.148288 26.518,142.879067 C26.518,144.607834 25.119,146.015789 23.397,146.015789 Z M8.603,137.747071 C5.785,137.747071 3.5,140.048072 3.5,142.879067 C3.5,145.702016 5.785,148 8.603,148 C11.42,148 13.709,145.702016 13.709,142.879067 C13.709,140.048072 11.42,137.747071 8.603,137.747071 Z M8.603,146.015789 C6.88,146.015789 5.479,144.607834 5.479,142.879067 C5.479,141.148288 6.88,139.740333 8.603,139.740333 C10.324,139.740333 11.725,141.148288 11.725,142.879067 C11.725,144.607834 10.324,146.015789 8.603,146.015789 Z M8.603,146.015789" id="bicycle--white" fill="#206FAC" sketch:type="MSShapeGroup"></path>
        <path d="M18.689,96.6488661 C18.841,96.7122241 19.004,96.7444059 19.167,96.7444059 L21.724,96.7444059 C22.408,96.7444059 22.961,96.1963091 22.961,95.5074169 C22.961,94.8255644 22.408,94.254337 21.724,94.254337 L19.672,94.254337 L16.853,91.4132851 C16.85,91.4112737 16.849,91.4042339 16.845,91.4022226 C16.606,91.1568361 16.289,91.0361543 15.971,91.03716 C15.653,91.0361543 15.335,91.1568361 15.091,91.4022226 C15.086,91.4082567 15.084,91.4163021 15.078,91.4223362 L11.902,94.6234223 C11.658,94.8637804 11.536,95.1835873 11.536,95.5033942 C11.536,95.8221954 11.658,96.1399909 11.902,96.3813547 L14.733,99.2304521 L14.733,104.008448 C14.733,104.694323 15.287,105.257505 15.966,105.257505 C16.657,105.257505 17.209,104.694323 17.209,104.008448 L17.209,98.7487303 C17.216,98.4188666 17.099,98.0859858 16.845,97.8345653 L14.525,95.5013828 L15.968,94.0471665 L18.287,96.3813547 C18.287,96.3813547 18.29,96.3823603 18.291,96.3843717 C18.404,96.4960024 18.539,96.5865138 18.689,96.6488661 Z M19.259,91.9895409 C20.357,91.9895409 21.247,91.0995122 21.247,89.9892392 C21.247,88.8880173 20.357,88 19.259,88 C18.17,88 17.277,88.8880173 17.277,89.9892392 C17.277,91.0995122 18.17,91.9895409 19.259,91.9895409 Z M23.397,97.747071 C20.58,97.747071 18.295,100.048072 18.295,102.879067 C18.295,105.702016 20.58,108 23.397,108 C26.211,108 28.5,105.702016 28.5,102.879067 C28.5,100.048072 26.211,97.747071 23.397,97.747071 Z M23.397,106.015789 C21.673,106.015789 20.27,104.607834 20.27,102.879067 C20.27,101.148288 21.673,99.7403329 23.397,99.7403329 C25.119,99.7403329 26.518,101.148288 26.518,102.879067 C26.518,104.607834 25.119,106.015789 23.397,106.015789 Z M8.603,97.747071 C5.785,97.747071 3.5,100.048072 3.5,102.879067 C3.5,105.702016 5.785,108 8.603,108 C11.42,108 13.709,105.702016 13.709,102.879067 C13.709,100.048072 11.42,97.747071 8.603,97.747071 Z M8.603,106.015789 C6.88,106.015789 5.479,104.607834 5.479,102.879067 C5.479,101.148288 6.88,99.7403329 8.603,99.7403329 C10.324,99.7403329 11.725,101.148288 11.725,102.879067 C11.725,104.607834 10.324,106.015789 8.603,106.015789 Z M8.603,106.015789" id="bicycle--subdued-grey" fill="#FFFFFF" sketch:type="MSShapeGroup"></path>
        <path d="M18.689,56.6488661 C18.841,56.7122241 19.004,56.7444059 19.167,56.7444059 L21.724,56.7444059 C22.408,56.7444059 22.961,56.1963091 22.961,55.5074169 C22.961,54.8255644 22.408,54.254337 21.724,54.254337 L19.672,54.254337 L16.853,51.4132851 C16.85,51.4112737 16.849,51.4042339 16.845,51.4022226 C16.606,51.1568361 16.289,51.0361543 15.971,51.03716 C15.653,51.0361543 15.335,51.1568361 15.091,51.4022226 C15.086,51.4082567 15.084,51.4163021 15.078,51.4223362 L11.902,54.6234223 C11.658,54.8637804 11.536,55.1835873 11.536,55.5033942 C11.536,55.8221954 11.658,56.1399909 11.902,56.3813547 L14.733,59.2304521 L14.733,64.0084477 C14.733,64.6943229 15.287,65.2575049 15.966,65.2575049 C16.657,65.2575049 17.209,64.6943229 17.209,64.0084477 L17.209,58.7487303 C17.216,58.4188666 17.099,58.0859858 16.845,57.8345653 L14.525,55.5013828 L15.968,54.0471665 L18.287,56.3813547 C18.287,56.3813547 18.29,56.3823603 18.291,56.3843717 C18.404,56.4960024 18.539,56.5865138 18.689,56.6488661 Z M19.259,51.9895409 C20.357,51.9895409 21.247,51.0995122 21.247,49.9892392 C21.247,48.8880173 20.357,48 19.259,48 C18.17,48 17.277,48.8880173 17.277,49.9892392 C17.277,51.0995122 18.17,51.9895409 19.259,51.9895409 Z M23.397,57.747071 C20.58,57.747071 18.295,60.0480716 18.295,62.8790667 C18.295,65.7020164 20.58,68 23.397,68 C26.211,68 28.5,65.7020164 28.5,62.8790667 C28.5,60.0480716 26.211,57.747071 23.397,57.747071 Z M23.397,66.0157892 C21.673,66.0157892 20.27,64.6078343 20.27,62.8790667 C20.27,61.1482878 21.673,59.7403329 23.397,59.7403329 C25.119,59.7403329 26.518,61.1482878 26.518,62.8790667 C26.518,64.6078343 25.119,66.0157892 23.397,66.0157892 Z M8.603,57.747071 C5.785,57.747071 3.5,60.0480716 3.5,62.8790667 C3.5,65.7020164 5.785,68 8.603,68 C11.42,68 13.709,65.7020164 13.709,62.8790667 C13.709,60.0480716 11.42,57.747071 8.603,57.747071 Z M8.603,66.0157892 C6.88,66.0157892 5.479,64.6078343 5.479,62.8790667 C5.479,61.1482878 6.88,59.7403329 8.603,59.7403329 C10.324,59.7403329 11.725,61.1482878 11.725,62.8790667 C11.725,64.6078343 10.324,66.0157892 8.603,66.0157892 Z M8.603,66.0157892" id="bicycle--body-grey" fill="#67737B" sketch:type="MSShapeGroup"></path>
        <path d="M18.689,16.6488661 C18.841,16.7122241 19.004,16.7444059 19.167,16.7444059 L21.724,16.7444059 C22.408,16.7444059 22.961,16.1963091 22.961,15.5074169 C22.961,14.8255644 22.408,14.254337 21.724,14.254337 L19.672,14.254337 L16.853,11.4132851 C16.85,11.4112737 16.849,11.4042339 16.845,11.4022226 C16.606,11.1568361 16.289,11.0361543 15.971,11.03716 C15.653,11.0361543 15.335,11.1568361 15.091,11.4022226 C15.086,11.4082567 15.084,11.4163021 15.078,11.4223362 L11.902,14.6234223 C11.658,14.8637804 11.536,15.1835873 11.536,15.5033942 C11.536,15.8221954 11.658,16.1399909 11.902,16.3813547 L14.733,19.2304521 L14.733,24.0084477 C14.733,24.6943229 15.287,25.2575049 15.966,25.2575049 C16.657,25.2575049 17.209,24.6943229 17.209,24.0084477 L17.209,18.7487303 C17.216,18.4188666 17.099,18.0859858 16.845,17.8345653 L14.525,15.5013828 L15.968,14.0471665 L18.287,16.3813547 C18.287,16.3813547 18.29,16.3823603 18.291,16.3843717 C18.404,16.4960024 18.539,16.5865138 18.689,16.6488661 Z M19.259,11.9895409 C20.357,11.9895409 21.247,11.0995122 21.247,9.9892392 C21.247,8.8880173 20.357,8 19.259,8 C18.17,8 17.277,8.8880173 17.277,9.9892392 C17.277,11.0995122 18.17,11.9895409 19.259,11.9895409 Z M23.397,17.747071 C20.58,17.747071 18.295,20.0480716 18.295,22.8790667 C18.295,25.7020164 20.58,28 23.397,28 C26.211,28 28.5,25.7020164 28.5,22.8790667 C28.5,20.0480716 26.211,17.747071 23.397,17.747071 Z M23.397,26.0157892 C21.673,26.0157892 20.27,24.6078343 20.27,22.8790667 C20.27,21.1482878 21.673,19.7403329 23.397,19.7403329 C25.119,19.7403329 26.518,21.1482878 26.518,22.8790667 C26.518,24.6078343 25.119,26.0157892 23.397,26.0157892 Z M8.603,17.747071 C5.785,17.747071 3.5,20.0480716 3.5,22.8790667 C3.5,25.7020164 5.785,28 8.603,28 C11.42,28 13.709,25.7020164 13.709,22.8790667 C13.709,20.0480716 11.42,17.747071 8.603,17.747071 Z M8.603,26.0157892 C6.88,26.0157892 5.479,24.6078343 5.479,22.8790667 C5.479,21.1482878 6.88,19.7403329 8.603,19.7403329 C10.324,19.7403329 11.725,21.1482878 11.725,22.8790667 C11.725,24.6078343 10.324,26.0157892 8.603,26.0157892 Z M8.603,26.0157892" id="bicycle--title-grey" fill="#3A434E" sketch:type="MSShapeGroup"></path>
    </g>
</svg>

<svg width="32" height="232" viewBox="0 0 32 232" xmlns="http://www.w3.org/2000/svg" xmlns:sketch="http://www.bohemiancoding.com/sketch/ns"><title>bicycle</title><g sketch:type="MSPage" fill="none"><path d="M18.689 136.649c.152.063.315.096.478.096h2.557c.684 0 1.237-.548 1.237-1.237 0-.682-.553-1.253-1.237-1.253h-2.052l-2.819-2.841-.008-.011c-.239-.245-.556-.366-.874-.365-.318-.001-.636.12-.88.365l-.013.02-3.176 3.201c-.244.24-.366.56-.366.88 0 .319.122.637.366.878l2.831 2.849v4.778c0 .686.554 1.249 1.233 1.249.691 0 1.243-.563 1.243-1.249v-5.26c.007-.33-.11-.663-.364-.914l-2.32-2.333 1.443-1.454 2.319 2.334.004.003c.113.112.248.202.398.264zm.57-4.659c1.098 0 1.988-.89 1.988-2 0-1.101-.89-1.989-1.988-1.989-1.089 0-1.982.888-1.982 1.989 0 1.11.893 2 1.982 2zm4.138 5.758c-2.817 0-5.102 2.301-5.102 5.132 0 2.823 2.285 5.121 5.102 5.121 2.814 0 5.103-2.298 5.103-5.121 0-2.831-2.289-5.132-5.103-5.132zm0 8.269c-1.724 0-3.127-1.408-3.127-3.137 0-1.731 1.403-3.139 3.127-3.139 1.722 0 3.121 1.408 3.121 3.139 0 1.729-1.399 3.137-3.121 3.137zm-14.794-8.269c-2.818 0-5.103 2.301-5.103 5.132 0 2.823 2.285 5.121 5.103 5.121 2.817 0 5.106-2.298 5.106-5.121 0-2.831-2.289-5.132-5.106-5.132zm0 8.269c-1.723 0-3.124-1.408-3.124-3.137 0-1.731 1.401-3.139 3.124-3.139 1.721 0 3.122 1.408 3.122 3.139 0 1.729-1.401 3.137-3.122 3.137zm0 0" fill="#206FAC" sketch:type="MSShapeGroup"/><path d="M18.689 96.649c.152.063.315.096.478.096h2.557c.684 0 1.237-.548 1.237-1.237 0-.682-.553-1.253-1.237-1.253h-2.052l-2.819-2.841-.008-.011c-.239-.245-.556-.366-.874-.365-.318-.001-.636.12-.88.365l-.013.02-3.176 3.201c-.244.24-.366.56-.366.88 0 .319.122.637.366.878l2.831 2.849v4.778c0 .686.554 1.249 1.233 1.249.691 0 1.243-.563 1.243-1.249v-5.26c.007-.33-.11-.663-.364-.914l-2.32-2.333 1.443-1.454 2.319 2.334.004.003c.113.112.248.202.398.264zm.57-4.659c1.098 0 1.988-.89 1.988-2 0-1.101-.89-1.989-1.988-1.989-1.089 0-1.982.888-1.982 1.989 0 1.11.893 2 1.982 2zm4.138 5.758c-2.817 0-5.102 2.301-5.102 5.132 0 2.823 2.285 5.121 5.102 5.121 2.814 0 5.103-2.298 5.103-5.121 0-2.831-2.289-5.132-5.103-5.132zm0 8.269c-1.724 0-3.127-1.408-3.127-3.137 0-1.731 1.403-3.139 3.127-3.139 1.722 0 3.121 1.408 3.121 3.139 0 1.729-1.399 3.137-3.121 3.137zm-14.794-8.269c-2.818 0-5.103 2.301-5.103 5.132 0 2.823 2.285 5.121 5.103 5.121 2.817 0 5.106-2.298 5.106-5.121 0-2.831-2.289-5.132-5.106-5.132zm0 8.269c-1.723 0-3.124-1.408-3.124-3.137 0-1.731 1.401-3.139 3.124-3.139 1.721 0 3.122 1.408 3.122 3.139 0 1.729-1.401 3.137-3.122 3.137zm0 0" fill="#fff" sketch:type="MSShapeGroup"/><path d="M18.689 56.649c.152.063.315.096.478.096h2.557c.684 0 1.237-.548 1.237-1.237 0-.682-.553-1.253-1.237-1.253h-2.052l-2.819-2.841-.008-.011c-.239-.245-.556-.366-.874-.365-.318-.001-.636.12-.88.365l-.013.02-3.176 3.201c-.244.24-.366.56-.366.88 0 .319.122.637.366.878l2.831 2.849v4.778c0 .686.554 1.249 1.233 1.249.691 0 1.243-.563 1.243-1.249v-5.26c.007-.33-.11-.663-.364-.914l-2.32-2.333 1.443-1.454 2.319 2.334.004.003c.113.112.248.202.398.264zm.57-4.659c1.098 0 1.988-.89 1.988-2 0-1.101-.89-1.989-1.988-1.989-1.089 0-1.982.888-1.982 1.989 0 1.11.893 2 1.982 2zm4.138 5.758c-2.817 0-5.102 2.301-5.102 5.132 0 2.823 2.285 5.121 5.102 5.121 2.814 0 5.103-2.298 5.103-5.121 0-2.831-2.289-5.132-5.103-5.132zm0 8.269c-1.724 0-3.127-1.408-3.127-3.137 0-1.731 1.403-3.139 3.127-3.139 1.722 0 3.121 1.408 3.121 3.139 0 1.729-1.399 3.137-3.121 3.137zm-14.794-8.269c-2.818 0-5.103 2.301-5.103 5.132 0 2.823 2.285 5.121 5.103 5.121 2.817 0 5.106-2.298 5.106-5.121 0-2.831-2.289-5.132-5.106-5.132zm0 8.269c-1.723 0-3.124-1.408-3.124-3.137 0-1.731 1.401-3.139 3.124-3.139 1.721 0 3.122 1.408 3.122 3.139 0 1.729-1.401 3.137-3.122 3.137zm0 0" fill="#67737B" sketch:type="MSShapeGroup"/><path d="M18.689 16.649c.152.063.315.096.478.096h2.557c.684 0 1.237-.548 1.237-1.237 0-.682-.553-1.253-1.237-1.253h-2.052l-2.819-2.841-.008-.011c-.239-.245-.556-.366-.874-.365-.318-.001-.636.12-.88.365l-.013.02-3.176 3.201c-.244.24-.366.56-.366.88 0 .319.122.637.366.878l2.831 2.849v4.778c0 .686.554 1.249 1.233 1.249.691 0 1.243-.563 1.243-1.249v-5.26c.007-.33-.11-.663-.364-.914l-2.32-2.333 1.443-1.454 2.319 2.334.004.003c.113.112.248.202.398.264zm.57-4.659c1.098 0 1.988-.89 1.988-2 0-1.101-.89-1.989-1.988-1.989-1.089 0-1.982.888-1.982 1.989 0 1.11.893 2 1.982 2zm4.138 5.758c-2.817 0-5.102 2.301-5.102 5.132 0 2.823 2.285 5.121 5.102 5.121 2.814 0 5.103-2.298 5.103-5.121 0-2.831-2.289-5.132-5.103-5.132zm0 8.269c-1.724 0-3.127-1.408-3.127-3.137 0-1.731 1.403-3.139 3.127-3.139 1.722 0 3.121 1.408 3.121 3.139 0 1.729-1.399 3.137-3.121 3.137zm-14.794-8.269c-2.818 0-5.103 2.301-5.103 5.132 0 2.823 2.285 5.121 5.103 5.121 2.817 0 5.106-2.298 5.106-5.121 0-2.831-2.289-5.132-5.106-5.132zm0 8.269c-1.723 0-3.124-1.408-3.124-3.137 0-1.731 1.401-3.139 3.124-3.139 1.721 0 3.122 1.408 3.122 3.139 0 1.729-1.401 3.137-3.122 3.137zm0 0" fill="#3A434E" sketch:type="MSShapeGroup"/></g></svg>
